X:17357
T:The Wind Blew the Bonnie Lassie's Plaidie awa
M:2/4
L:1/16
K:G
GA|B2B2 cBAG|d2B2 B2ge|d2B2 cBAG|B2A2 A2GA|!
B2B2 cBAG|B2d2 g3a|bagf efge|d2B2 B2:|!
|:Bc|d2B2 g2B2|d2B2 B2Bc|d2B2 g2fg|a2A2 A2GA|!
B2B2 cBAG|B2d2 g3a|bagf efge|d2B2 B2:|!
